material/.icons/material/skip-forward-outline.svg

<svg xmlns="http://www.w3.org/2000/svg" viewBox="0 0 24 24"><path d="M6 9.83L8.17 12 6 14.17V9.83M4 5v14l7-7m9-7h-2v14h2m-7-9.17L15.17 12 13 14.17V9.83M11 5v14l7-7"/></svg>

<?xml version="1.0" encoding="UTF-8"?><!DOCTYPE svg PUBLIC "-//W3C//DTD SVG 1.1//EN" "http://www.w3.org/Graphics/SVG/1.1/DTD/svg11.dtd"><svg xmlns="http://www.w3.org/2000/svg" xmlns:xlink="http://www.w3.org/1999/xlink" version="1.1" id="mdi-skip-forward-outline" width="24" height="24" viewBox="0 0 24 24"><path d="M6,9.83L8.17,12L6,14.17V9.83M4,5V19L11,12M20,5H18V19H20M13,9.83L15.17,12L13,14.17V9.83M11,5V19L18,12" /></svg>
